X:546
T: Kangding qingge
N: C0232
O: China,Sichuan, Kangding
S: II, 254]
N: Bberuehmt, Qingge
R: Qingge]
M: 2/4
L: 1/16
K: F
A2c2d2dc | d3AG4 | A2c2d2dc | d2A6 |
A2c2d2dc | d2A2G4 | c2A2GAGF | G2D6 |
D2G6 | c2A6 | GFD6 |
c2A2GAGF | G2D6

@@@ Tune index: 6547
